src/images/amenities/shower.svg

<svg width="20" height="21" viewBox="0 0 20 21" fill="none" xmlns="http://www.w3.org/2000/svg">
<g clip-path="url(#clip0_643:6)">
<path d="M10.101 18.3035H10.9091V19.9464H10.101V18.3035ZM10.101 17.0714H10.9091V15.4285H10.101V17.0714ZM6.86868 14.1964H7.67676V12.5535H6.86868V14.1964ZM6.86868 17.0714H7.67676V15.4285H6.86868V17.0714ZM6.86868 19.9464H7.67676V18.3035H6.86868V19.9464ZM10.101 14.1964H10.9091V12.5535H10.101V14.1964ZM19.3939 10.9107V11.3214H4.84848V10.9107C4.84848 7.4237 6.63676 5.83834 10.9406 5.60588C11.0424 5.03252 11.3826 4.84318 11.7002 4.78116C11.6178 3.93016 11.198 3.92852 10.101 3.92852H0.80808V5.57138H0V1.46423H0.80808V3.10709H10.101C11.2129 3.10709 12.3588 3.10873 12.5075 4.775C12.8364 4.83045 13.198 5.01404 13.3026 5.61409C18.2986 5.97347 19.3939 8.64352 19.3939 10.9107ZM18.5721 10.4999C18.3854 7.73707 16.2703 6.39281 12.1212 6.39281C7.00727 6.39281 5.77535 7.95311 5.66505 10.4999H18.5721ZM16.5656 17.0714H17.3737V15.4285H16.5656V17.0714ZM16.5656 14.1964H17.3737V12.5535H16.5656V14.1964ZM13.3333 19.9464H14.1414V18.3035H13.3333V19.9464ZM16.5656 19.9464H17.3737V18.3035H16.5656V19.9464ZM13.3333 17.0714H14.1414V15.4285H13.3333V17.0714ZM13.3333 14.1964H14.1414V12.5535H13.3333V14.1964Z" fill="#39412F"/>
</g>
<defs>
<clipPath id="clip0_643:6">
<rect width="19.3939" height="19.7143" fill="white" transform="translate(0 0.642822)"/>
</clipPath>
</defs>
</svg>

<svg xmlns="http://www.w3.org/2000/svg" viewBox="0 0 20 21"><g clip-path="url(#a)"><path d="M10.101 18.303h.808v1.643h-.808v-1.643Zm0-1.232h.808v-1.643h-.808v1.643Zm-3.232-2.875h.808v-1.643h-.808v1.643Zm0 2.875h.808v-1.643h-.808v1.643Zm0 2.875h.808v-1.643h-.808v1.643Zm3.232-5.75h.808v-1.643h-.808v1.643Zm9.293-3.285v.41H4.848v-.41c0-3.487 1.789-5.073 6.093-5.305.101-.573.442-.763.76-.825-.083-.85-.503-.852-1.6-.852H.808V5.57H0V1.464h.808v1.643h9.293c1.112 0 2.258.002 2.406 1.668.33.055.691.239.796.84 4.996.358 6.09 3.029 6.09 5.296Zm-.822-.411c-.187-2.763-2.302-4.107-6.45-4.107-5.115 0-6.347 1.56-6.457 4.107h12.907Zm-2.006 6.571h.808v-1.643h-.808v1.643Zm0-2.875h.808v-1.643h-.808v1.643Zm-3.233 5.75h.808v-1.643h-.808v1.643Zm3.233 0h.808v-1.643h-.808v1.643Zm-3.233-2.875h.808v-1.643h-.808v1.643Zm0-2.875h.808v-1.643h-.808v1.643Z" fill="#39412F"/></g><defs><clipPath id="a"><path fill="#fff" transform="translate(0 .643)" d="M0 0h19.394v19.714H0z"/></clipPath></defs></svg>
